Gurmukhi/0A26.svg

<svg enable-background="new 0 0 336 592" viewBox="0 0 336 592" xmlns="http://www.w3.org/2000/svg"><path d="m112.67482 257.614319c4.407783-3.395157 8.783508-6.109635 14.025246-6.985794 7.922004-1.324143 12.9524 2.620666 13.617744 10.587265.869873 10.415191.869858 10.424927 11.50235 10.429321 16.829803.006958 33.660843-.111969 50.488525.076111 4.210236.047058 5.455567-1.454468 5.406098-5.51358-.176697-14.494797-.224579-28.995774.026367-43.488404.077774-4.491897-1.484833-5.632644-5.772019-5.616806-37.82489.13974-75.651023-.012954-113.475242.197953-5.068199.028259-7.691986-1.585968-8.927841-6.410248-.820893-3.204377-2.4683-6.187699-3.478279-9.35524-1.34269-4.211014-.137001-5.919052 4.223297-6.359207 1.32164-.133393 2.663246-.092118 3.995704-.09195 59.820763.007569 119.641533.017365 179.462303.033341 8.070527.002166 8.079529.014251 11.059784 7.615356 1.033265 2.6353 2.133149 5.253967 2.983551 7.949326 1.360627 4.312515-.085479 6.389602-4.631591 6.428741-11.163575.096115-22.332306.213181-33.490891-.037536-4.754471-.106827-6.431427 1.484436-6.375473 6.311676.216248 18.660247.119034 37.324401.095352 55.98706-.010132 7.989655-3.586548 11.612488-11.459778 11.620361-23.994934.024018-47.989913.00116-71.984878.015351-6.839386.004028-7.403229.268646-6.544098 7.052124 2.447678 19.325928 7.031204 38.024658 18.940155 54.015259 8.033249 10.78659 18.290634 18.070739 32.429749 17.598816 16.556717-.552582 26.264022-10.654694 32.799499-24.618439 1.750061-3.739197 2.759552-7.83551 3.987549-11.805451 1.143204-3.695861 3.428253-5.187408 7.172577-3.962219 5.220123 1.708038 10.399353 3.540833 15.617157 5.256195 2.011383.661286 3.115906 1.660156 2.593811 4.010864-5.078766 22.866761-15.917404 41.410462-39.992005 47.831055-27.975921 7.46109-51.597198-1.21463-70.503356-22.680115-16.550522-18.791015-25.083169-41.394958-29.570717-65.674347-.65075-3.520843-1.96653-4.650482-5.463082-4.783874-11.755218-.448395-16.277343-7.547638-12.049812-18.600403 2.636757-6.893738 7.552711-12.07373 13.292244-17.032562z"/></svg>

<svg version="1.1" id="Layer_1" xmlns="http://www.w3.org/2000/svg" xmlns:xlink="http://www.w3.org/1999/xlink" x="0px" y="0px"
	 width="100%" viewBox="0 0 336 592" enable-background="new 0 0 336 592" xml:space="preserve">
<path fill="#000000" opacity="1.000000" stroke="none" 
	d="
M112.674820,257.614319 
	C117.082603,254.219162 121.458328,251.504684 126.700066,250.628525 
	C134.622070,249.304382 139.652466,253.249191 140.317810,261.215790 
	C141.187683,271.630981 141.187668,271.640717 151.820160,271.645111 
	C168.649963,271.652069 185.481003,271.533142 202.308685,271.721222 
	C206.518921,271.768280 207.764252,270.266754 207.714783,266.207642 
	C207.538086,251.712845 207.490204,237.211868 207.741150,222.719238 
	C207.818924,218.227341 206.256317,217.086594 201.969131,217.102432 
	C164.144241,217.242172 126.318108,217.089478 88.493889,217.300385 
	C83.425690,217.328644 80.801903,215.714417 79.566048,210.890137 
	C78.745155,207.685760 77.097748,204.702438 76.087769,201.534897 
	C74.745079,197.323883 75.950768,195.615845 80.311066,195.175690 
	C81.632706,195.042297 82.974312,195.083572 84.306770,195.083740 
	C144.127533,195.091309 203.948303,195.101105 263.769073,195.117081 
	C271.839600,195.119247 271.848602,195.131332 274.828857,202.732437 
	C275.862122,205.367737 276.962006,207.986404 277.812408,210.681763 
	C279.173035,214.994278 277.726929,217.071365 273.180817,217.110504 
	C262.017242,217.206619 250.848511,217.323685 239.689926,217.072968 
	C234.935455,216.966141 233.258499,218.557404 233.314453,223.384644 
	C233.530701,242.044891 233.433487,260.709045 233.409805,279.371704 
	C233.399673,287.361359 229.823257,290.984192 221.950027,290.992065 
	C197.955093,291.016083 173.960114,290.993225 149.965149,291.007416 
	C143.125763,291.011444 142.561920,291.276062 143.421051,298.059540 
	C145.868729,317.385468 150.452255,336.084198 162.361206,352.074799 
	C170.394455,362.861389 180.651840,370.145538 194.790955,369.673615 
	C211.347672,369.121033 221.054977,359.018921 227.590454,345.055176 
	C229.340515,341.315979 230.350006,337.219666 231.578003,333.249725 
	C232.721207,329.553864 235.006256,328.062317 238.750580,329.287506 
	C243.970703,330.995544 249.149933,332.828339 254.367737,334.543701 
	C256.379120,335.204987 257.483643,336.203857 256.961548,338.554565 
	C251.882782,361.421326 241.044144,379.965027 216.969543,386.385620 
	C188.993622,393.846710 165.372345,385.170990 146.466187,363.705505 
	C129.915665,344.914490 121.383018,322.310547 116.895470,298.031158 
	C116.244720,294.510315 114.928940,293.380676 111.432388,293.247284 
	C99.677170,292.798889 95.155045,285.699646 99.382576,274.646881 
	C102.019333,267.753143 106.935287,262.573151 112.674820,257.614319 
z"/>
</svg>
